frontend/dist/assets/icons/icon-strategy.svg

<svg width="74" height="74" viewBox="0 0 74 74" fill="none" xmlns="http://www.w3.org/2000/svg">
<path d="M18.761 13.7083L27.0026 21.9142L21.9143 27.0025L13.7085 18.7608L5.50264 27.0025L0.414307 21.9142L8.65597 13.7083L0.414307 5.5025L5.50264 0.414169L13.7085 8.65584L21.9143 0.414169L27.0026 5.5025L18.761 13.7083ZM73.586 52.0858L68.4976 46.9975L60.2918 55.2392L52.086 46.9975L46.9976 52.0858L55.2393 60.2917L46.9976 68.4975L52.086 73.5858L60.2918 65.3442L68.4976 73.5858L73.586 68.4975L65.3443 60.2917L73.586 52.0858ZM67.1001 18.4742L55.5618 33.4167L49.9001 28.8658L54.0926 23.4908C48.7451 24.5771 43.7567 26.9908 39.5864 30.5099C35.416 34.0291 32.1978 38.5405 30.2276 43.6292C33.3465 45.8783 35.559 49.168 36.466 52.9048C37.373 56.6415 36.9148 60.5794 35.174 64.0081C33.4332 67.4368 30.5244 70.1305 26.9724 71.6034C23.4204 73.0762 19.4589 73.2313 15.8027 72.0405C12.1464 70.8498 9.03601 68.3917 7.03255 65.1095C5.0291 61.8274 4.26448 57.9374 4.87662 54.1411C5.48876 50.3449 7.43737 46.8924 10.3709 44.4064C13.3045 41.9203 17.0299 40.5645 20.8751 40.5833C21.8139 40.5871 22.7501 40.6831 23.6701 40.87C26.1527 34.7089 30.1167 29.2553 35.2109 24.9925C40.305 20.7297 46.3721 17.7892 52.8743 16.4317L47.7501 12.5617L52.301 6.9L67.1001 18.4742ZM29.8335 56.7083C29.8335 54.9365 29.3081 53.2045 28.3237 51.7314C27.3394 50.2582 25.9403 49.11 24.3033 48.4319C22.6664 47.7539 20.8652 47.5765 19.1275 47.9221C17.3897 48.2678 15.7935 49.121 14.5406 50.3738C13.2878 51.6267 12.4346 53.2229 12.0889 54.9607C11.7433 56.6984 11.9207 58.4996 12.5987 60.1365C13.2768 61.7735 14.425 63.1726 15.8982 64.1569C17.3713 65.1413 19.1034 65.6667 20.8751 65.6667C23.251 65.6667 25.5296 64.7229 27.2096 63.0428C28.8897 61.3628 29.8335 59.0842 29.8335 56.7083Z" fill="#FFA757"/>
</svg>

<svg width="74" height="74" fill="none" xmlns="http://www.w3.org/2000/svg"><path d="M18.761 13.708l8.242 8.206-5.089 5.088-8.206-8.241-8.205 8.242-5.089-5.089 8.242-8.206L.414 5.502 5.503.414l8.206 8.242L21.913.414l5.089 5.089-8.242 8.205zm54.825 38.378l-5.088-5.088-8.206 8.241-8.206-8.241-5.088 5.088 8.241 8.206-8.241 8.206 5.088 5.088 8.206-8.242 8.206 8.242 5.088-5.088-8.242-8.206 8.242-8.206zM67.1 18.474L55.562 33.417 49.9 28.866l4.193-5.375a32.537 32.537 0 00-23.865 20.138 16.125 16.125 0 11-9.353-3.046c.939.004 1.875.1 2.795.287a40.383 40.383 0 0129.204-24.438l-5.124-3.87L52.301 6.9l14.8 11.574zM29.834 56.708a8.958 8.958 0 10-17.916 0 8.958 8.958 0 0017.916 0z" fill="#FFA757"/></svg>
